assets/img/main/pocket.svg

<svg width="36" height="36" viewBox="0 0 36 36" fill="none" xmlns="http://www.w3.org/2000/svg">
<path d="M17.8965 3.08702C18.0823 2.85458 18.3123 2.6613 18.5732 2.51835C18.8342 2.37541 19.1209 2.28564 19.4168 2.25425C19.7127 2.22287 20.0119 2.25048 20.297 2.33549C20.5822 2.4205 20.8476 2.56123 21.078 2.74952L28.4175 8.74352C28.8211 9.07308 29.0979 9.53252 29.2004 10.0434C29.303 10.5543 29.2251 11.0849 28.98 11.5448C28.3383 11.3487 27.671 11.2493 27 11.25H26.325L26.9955 10.485L23.13 7.32827L19.9417 11.2523H17.0415L21.3862 5.90627L19.6537 4.49102L14.2582 11.25H11.3783L17.8965 3.08702ZM23.625 22.5C23.3266 22.5 23.0405 22.6185 22.8295 22.8295C22.6185 23.0405 22.5 23.3267 22.5 23.625C22.5 23.9234 22.6185 24.2095 22.8295 24.4205C23.0405 24.6315 23.3266 24.75 23.625 24.75H25.875C26.1734 24.75 26.4595 24.6315 26.6705 24.4205C26.8815 24.2095 27 23.9234 27 23.625C27 23.3267 26.8815 23.0405 26.6705 22.8295C26.4595 22.6185 26.1734 22.5 25.875 22.5H23.625ZM6.75 12.375C6.75 12.0767 6.86853 11.7905 7.0795 11.5795C7.29048 11.3685 7.57663 11.25 7.875 11.25H9.1305L10.9193 9.00002H7.875C6.97989 9.00002 6.12145 9.3556 5.48851 9.98853C4.85558 10.6215 4.5 11.4799 4.5 12.375V25.875C4.5 27.3669 5.09263 28.7976 6.14752 29.8525C7.20242 30.9074 8.63316 31.5 10.125 31.5H27C28.1935 31.5 29.3381 31.0259 30.182 30.182C31.0259 29.3381 31.5 28.1935 31.5 27V18C31.5 16.8065 31.0259 15.662 30.182 14.818C29.3381 13.9741 28.1935 13.5 27 13.5H7.875C7.57663 13.5 7.29048 13.3815 7.0795 13.1705C6.86853 12.9595 6.75 12.6734 6.75 12.375ZM6.75 25.875V15.5588C7.101 15.6825 7.48125 15.75 7.875 15.75H27C27.5967 15.75 28.169 15.9871 28.591 16.409C29.0129 16.831 29.25 17.4033 29.25 18V27C29.25 27.5968 29.0129 28.1691 28.591 28.591C28.169 29.013 27.5967 29.25 27 29.25H10.125C9.22989 29.25 8.37145 28.8944 7.73851 28.2615C7.10558 27.6286 6.75 26.7701 6.75 25.875Z" fill="#EECD51"/>
</svg>

<svg width="36" height="36" fill="none" xmlns="http://www.w3.org/2000/svg"><path d="M17.896 3.087a2.251 2.251 0 0 1 3.182-.337l7.34 5.994a2.25 2.25 0 0 1 .562 2.8A6.75 6.75 0 0 0 27 11.25h-.675l.67-.765-3.865-3.157-3.188 3.924h-2.9l4.344-5.346-1.732-1.415-5.396 6.759h-2.88l6.518-8.163ZM23.625 22.5a1.125 1.125 0 1 0 0 2.25h2.25a1.125 1.125 0 1 0 0-2.25h-2.25ZM6.75 12.375a1.125 1.125 0 0 1 1.125-1.125H9.13L10.92 9H7.874A3.375 3.375 0 0 0 4.5 12.375v13.5a5.625 5.625 0 0 0 5.625 5.625H27a4.5 4.5 0 0 0 4.5-4.5v-9a4.5 4.5 0 0 0-4.5-4.5H7.875a1.125 1.125 0 0 1-1.125-1.125Zm0 13.5V15.559c.351.123.731.191 1.125.191H27A2.25 2.25 0 0 1 29.25 18v9A2.25 2.25 0 0 1 27 29.25H10.125a3.375 3.375 0 0 1-3.375-3.375Z" fill="#EECD51"/></svg>
